packages/ui-solid/icons/mic_28.svg

<svg width="28" height="28" viewBox="0 0 28 28" fill="none" xmlns="http://www.w3.org/2000/svg">
<path fill-rule="evenodd" clip-rule="evenodd" d="M9.10021 7.31293C9.10021 4.65618 11.325 2.55843 13.9991 2.55843C16.6732 2.55843 18.8981 4.65618 18.8981 7.31293V13.0947C18.8981 15.7514 16.6732 17.8492 13.9991 17.8492C11.325 17.8492 9.10021 15.7514 9.10021 13.0947V7.31293ZM13.9991 4.35843C12.2562 4.35843 10.9002 5.71213 10.9002 7.31293V13.0947C10.9002 14.6955 12.2562 16.0492 13.9991 16.0492C15.7421 16.0492 17.0981 14.6955 17.0981 13.0947V7.31293C17.0981 5.71212 15.7421 4.35843 13.9991 4.35843ZM6.50115 13.1583C6.99821 13.1583 7.40115 13.5612 7.40115 14.0583C7.40115 14.844 7.72229 16.3303 8.71105 17.601C9.66565 18.8278 11.2783 19.9036 13.9991 19.9036C16.72 19.9036 18.3326 18.8278 19.2872 17.601C20.276 16.3303 20.5971 14.844 20.5971 14.0583C20.5971 13.5612 21.0001 13.1583 21.4971 13.1583C21.9942 13.1583 22.3971 13.5612 22.3971 14.0583C22.3971 15.1999 21.9685 17.0862 20.7078 18.7064C19.5355 20.213 17.6734 21.4484 14.8991 21.6687V24.1763C14.8991 24.6734 14.4962 25.0763 13.9991 25.0763C13.5021 25.0763 13.0991 24.6734 13.0991 24.1763V21.6687C10.3248 21.4484 8.46272 20.213 7.29044 18.7064C6.02981 17.0862 5.60115 15.1999 5.60115 14.0583C5.60115 13.5612 6.00409 13.1583 6.50115 13.1583Z" fill="#007AFF"/>
</svg>

<svg xmlns="http://www.w3.org/2000/svg" width="28" height="28" fill="none"><path fill="currentColor" fill-rule="evenodd" d="M9.1 7.313c0-2.657 2.225-4.755 4.9-4.755 2.673 0 4.898 2.098 4.898 4.755v5.782c0 2.656-2.225 4.754-4.899 4.754S9.1 15.751 9.1 13.095zM14 4.358c-1.744 0-3.1 1.354-3.1 2.955v5.782c0 1.6 1.356 2.954 3.1 2.954 1.742 0 3.098-1.354 3.098-2.954V7.313c0-1.6-1.356-2.955-3.099-2.955m-7.499 8.8a.9.9 0 0 1 .9.9c0 .786.321 2.272 1.31 3.543.955 1.227 2.567 2.303 5.288 2.303s4.334-1.076 5.288-2.303c.989-1.27 1.31-2.757 1.31-3.543a.9.9 0 0 1 1.8 0c0 1.142-.428 3.028-1.69 4.648-1.172 1.507-3.034 2.742-5.808 2.963v2.507a.9.9 0 1 1-1.8 0V21.67c-2.774-.22-4.636-1.456-5.809-2.963-1.26-1.62-1.689-3.506-1.689-4.648a.9.9 0 0 1 .9-.9" clip-rule="evenodd"/></svg>
